bernoullicharts/0_5_x_1_0_5_x__bits.svg

<?xml version="1.0" encoding="utf-8" standalone="no"?>
<!DOCTYPE svg PUBLIC "-//W3C//DTD SVG 1.1//EN"
  "http://www.w3.org/Graphics/SVG/1.1/DTD/svg11.dtd">
<!-- Created with matplotlib (https://matplotlib.org/) -->
<svg height="345.6pt" version="1.1" viewBox="0 0 460.8 345.6" width="460.8pt" xmlns="http://www.w3.org/2000/svg" xmlns:xlink="http://www.w3.org/1999/xlink">
 <defs>
  <style type="text/css">
*{stroke-linecap:butt;stroke-linejoin:round;}
  </style>
 </defs>
 <g id="figure_1">
  <g id="patch_1">
   <path d="M 0 345.6 
L 460.8 345.6 
L 460.8 0 
L 0 0 
z
" style="fill:#ffffff;"/>
  </g>
  <g id="axes_1">
   <g id="patch_2">
    <path d="M 57.6 307.584 
L 414.72 307.584 
L 414.72 41.472 
L 57.6 41.472 
z
" style="fill:#ffffff;"/>
   </g>
   <g id="matplotlib.axis_1">
    <g id="xtick_1">
     <g id="line2d_1">
      <defs>
       <path d="M 0 0 
L 0 3.5 
" id="m51be2d2467" style="stroke:#000000;stroke-width:0.8;"/>
      </defs>
      <g>
       <use style="stroke:#000000;stroke-width:0.8;" x="73.800255" xlink:href="#m51be2d2467" y="307.584"/>
      </g>
     </g>
     <g id="text_1">
      <text style="font-family:DejaVu Sans;font-size:10px;font-style:normal;font-weight:normal;text-anchor:middle;" transform="rotate(-0, 73.800255, 322.182437)" x="73.800255" y="322.182437">0.0</text>
     </g>
    </g>
    <g id="xtick_2">
     <g id="line2d_2">
      <g>
       <use style="stroke:#000000;stroke-width:0.8;" x="138.744153" xlink:href="#m51be2d2467" y="307.584"/>
      </g>
     </g>
     <g id="text_2">
      <text style="font-family:DejaVu Sans;font-size:10px;font-style:normal;font-weight:normal;text-anchor:middle;" transform="rotate(-0, 138.744153, 322.182437)" x="138.744153" y="322.182437">0.2</text>
     </g>
    </g>
    <g id="xtick_3">
     <g id="line2d_3">
      <g>
       <use style="stroke:#000000;stroke-width:0.8;" x="203.688051" xlink:href="#m51be2d2467" y="307.584"/>
      </g>
     </g>
     <g id="text_3">
      <text style="font-family:DejaVu Sans;font-size:10px;font-style:normal;font-weight:normal;text-anchor:middle;" transform="rotate(-0, 203.688051, 322.182437)" x="203.688051" y="322.182437">0.4</text>
     </g>
    </g>
    <g id="xtick_4">
     <g id="line2d_4">
      <g>
       <use style="stroke:#000000;stroke-width:0.8;" x="268.631949" xlink:href="#m51be2d2467" y="307.584"/>
      </g>
     </g>
     <g id="text_4">
      <text style="font-family:DejaVu Sans;font-size:10px;font-style:normal;font-weight:normal;text-anchor:middle;" transform="rotate(-0, 268.631949, 322.182437)" x="268.631949" y="322.182437">0.6</text>
     </g>
    </g>
    <g id="xtick_5">
     <g id="line2d_5">
      <g>
       <use style="stroke:#000000;stroke-width:0.8;" x="333.575847" xlink:href="#m51be2d2467" y="307.584"/>
      </g>
     </g>
     <g id="text_5">
      <text style="font-family:DejaVu Sans;font-size:10px;font-style:normal;font-weight:normal;text-anchor:middle;" transform="rotate(-0, 333.575847, 322.182437)" x="333.575847" y="322.182437">0.8</text>
     </g>
    </g>
    <g id="xtick_6">
     <g id="line2d_6">
      <g>
       <use style="stroke:#000000;stroke-width:0.8;" x="398.519745" xlink:href="#m51be2d2467" y="307.584"/>
      </g>
     </g>
     <g id="text_6">
      <text style="font-family:DejaVu Sans;font-size:10px;font-style:normal;font-weight:normal;text-anchor:middle;" transform="rotate(-0, 398.519745, 322.182437)" x="398.519745" y="322.182437">1.0</text>
     </g>
    </g>
    <g id="text_7">
     <text style="font-family:DejaVu Sans;font-size:10px;font-style:normal;font-weight:normal;text-anchor:middle;" transform="rotate(-0, 236.16, 335.860562)" x="236.16" y="335.860562">Probability</text>
    </g>
   </g>
   <g id="matplotlib.axis_2">
    <g id="ytick_1">
     <g id="line2d_7">
      <defs>
       <path d="M 0 0 
L -3.5 0 
" id="m707fd17c06" style="stroke:#000000;stroke-width:0.8;"/>
      </defs>
      <g>
       <use style="stroke:#000000;stroke-width:0.8;" x="57.6" xlink:href="#m707fd17c06" y="295.749253"/>
      </g>
     </g>
     <g id="text_8">
      <text style="font-family:DejaVu Sans;font-size:10px;font-style:normal;font-weight:normal;text-anchor:end;" transform="rotate(-0, 50.6, 299.548471)" x="50.6" y="299.548471">2.50</text>
     </g>
    </g>
    <g id="ytick_2">
     <g id="line2d_8">
      <g>
       <use style="stroke:#000000;stroke-width:0.8;" x="57.6" xlink:href="#m707fd17c06" y="263.092665"/>
      </g>
     </g>
     <g id="text_9">
      <text style="font-family:DejaVu Sans;font-size:10px;font-style:normal;font-weight:normal;text-anchor:end;" transform="rotate(-0, 50.6, 266.891884)" x="50.6" y="266.891884">2.75</text>
     </g>
    </g>
    <g id="ytick_3">
     <g id="line2d_9">
      <g>
       <use style="stroke:#000000;stroke-width:0.8;" x="57.6" xlink:href="#m707fd17c06" y="230.436078"/>
      </g>
     </g>
     <g id="text_10">
      <text style="font-family:DejaVu Sans;font-size:10px;font-style:normal;font-weight:normal;text-anchor:end;" transform="rotate(-0, 50.6, 234.235297)" x="50.6" y="234.235297">3.00</text>
     </g>
    </g>
    <g id="ytick_4">
     <g id="line2d_10">
      <g>
       <use style="stroke:#000000;stroke-width:0.8;" x="57.6" xlink:href="#m707fd17c06" y="197.77949"/>
      </g>
     </g>
     <g id="text_11">
      <text style="font-family:DejaVu Sans;font-size:10px;font-style:normal;font-weight:normal;text-anchor:end;" transform="rotate(-0, 50.6, 201.578709)" x="50.6" y="201.578709">3.25</text>
     </g>
    </g>
    <g id="ytick_5">
     <g id="line2d_11">
      <g>
       <use style="stroke:#000000;stroke-width:0.8;" x="57.6" xlink:href="#m707fd17c06" y="165.122903"/>
      </g>
     </g>
     <g id="text_12">
      <text style="font-family:DejaVu Sans;font-size:10px;font-style:normal;font-weight:normal;text-anchor:end;" transform="rotate(-0, 50.6, 168.922122)" x="50.6" y="168.922122">3.50</text>
     </g>
    </g>
    <g id="ytick_6">
     <g id="line2d_12">
      <g>
       <use style="stroke:#000000;stroke-width:0.8;" x="57.6" xlink:href="#m707fd17c06" y="132.466315"/>
      </g>
     </g>
     <g id="text_13">
      <text style="font-family:DejaVu Sans;font-size:10px;font-style:normal;font-weight:normal;text-anchor:end;" transform="rotate(-0, 50.6, 136.265534)" x="50.6" y="136.265534">3.75</text>
     </g>
    </g>
    <g id="ytick_7">
     <g id="line2d_13">
      <g>
       <use style="stroke:#000000;stroke-width:0.8;" x="57.6" xlink:href="#m707fd17c06" y="99.809728"/>
      </g>
     </g>
     <g id="text_14">
      <text style="font-family:DejaVu Sans;font-size:10px;font-style:normal;font-weight:normal;text-anchor:end;" transform="rotate(-0, 50.6, 103.608947)" x="50.6" y="103.608947">4.00</text>
     </g>
    </g>
    <g id="ytick_8">
     <g id="line2d_14">
      <g>
       <use style="stroke:#000000;stroke-width:0.8;" x="57.6" xlink:href="#m707fd17c06" y="67.15314"/>
      </g>
     </g>
     <g id="text_15">
      <text style="font-family:DejaVu Sans;font-size:10px;font-style:normal;font-weight:normal;text-anchor:end;" transform="rotate(-0, 50.6, 70.952359)" x="50.6" y="70.952359">4.25</text>
     </g>
    </g>
    <g id="text_16">
     <text style="font-family:DejaVu Sans;font-size:10px;font-style:normal;font-weight:normal;text-anchor:middle;" transform="rotate(-90, 22.254687, 174.528)" x="22.254687" y="174.528">Average Bits Consumed Per Call</text>
    </g>
   </g>
   <g id="line2d_15">
    <path clip-path="url(#p17ffe88256)" d="M 73.832727 94.845927 
L 77.112066 152.060268 
L 80.391405 128.808778 
L 83.670744 120.709944 
L 86.950083 53.568 
L 90.229421 113.133616 
L 93.50876 94.323421 
L 96.788099 167.996683 
L 100.067438 114.701132 
L 103.346777 145.52895 
L 106.626116 146.312708 
L 109.905455 125.412492 
L 113.184793 115.223637 
L 116.464132 147.880225 
L 119.743471 164.077892 
L 123.02281 118.881175 
L 126.302149 154.150289 
L 129.581488 138.475127 
L 132.860826 136.646359 
L 136.140165 174.266747 
L 139.419504 153.627784 
L 142.698843 126.718756 
L 145.978182 186.545624 
L 149.257521 144.745192 
L 152.53686 159.897849 
L 155.816198 142.916423 
L 159.095537 170.347957 
L 162.374876 176.879274 
L 165.654215 134.81759 
L 168.933554 180.014307 
L 172.212893 161.465365 
L 175.492231 210.580873 
L 178.77157 171.131715 
L 182.050909 221.814739 
L 185.330248 156.240311 
L 188.609587 200.392017 
L 191.888926 209.535862 
L 195.168264 193.599447 
L 198.447603 181.843076 
L 201.726942 200.130765 
L 205.006281 181.581823 
L 208.28562 200.392017 
L 211.564959 182.626834 
L 214.844298 194.121952 
L 218.123636 193.8607 
L 221.402975 189.158151 
L 224.682314 242.714955 
L 227.961653 180.536812 
L 231.240992 161.98787 
L 234.520331 204.833313 
L 237.799669 183.410592 
L 241.079008 220.247222 
L 244.358347 215.805927 
L 247.637686 243.759965 
L 250.917025 210.842125 
L 254.196364 197.77949 
L 257.475702 218.940959 
L 260.755041 200.914523 
L 264.03438 224.688518 
L 267.313719 223.382255 
L 270.593058 265.44394 
L 273.872397 212.670894 
L 277.151736 227.562298 
L 280.431074 221.553486 
L 283.710413 224.166013 
L 286.989752 215.283421 
L 290.269091 229.913572 
L 293.54843 248.462514 
L 296.827769 233.048605 
L 300.107107 249.507525 
L 303.386446 253.948821 
L 306.665785 228.607309 
L 309.945124 231.742341 
L 313.224463 246.11124 
L 316.503802 228.084803 
L 319.78314 262.57016 
L 323.062479 227.301045 
L 326.341818 257.606359 
L 329.621157 244.804976 
L 332.900496 283.731629 
L 336.179835 225.472276 
L 339.459174 242.976207 
L 342.738512 254.210073 
L 346.017851 211.887136 
L 349.29719 260.480138 
L 352.576529 256.561348 
L 355.855868 246.11124 
L 359.135207 269.623983 
L 362.414545 264.660181 
L 365.693884 247.678756 
L 368.973223 263.615171 
L 372.252562 264.660181 
L 375.531901 275.110289 
L 378.81124 282.686618 
L 382.090579 269.623983 
L 385.369917 269.885235 
L 388.649256 265.182687 
L 391.928595 266.227698 
L 395.207934 295.488 
L 398.487273 280.857849 
" style="fill:none;stroke:#1f77b4;stroke-linecap:square;stroke-width:1.5;"/>
   </g>
   <g id="patch_3">
    <path d="M 57.6 307.584 
L 57.6 41.472 
" style="fill:none;stroke:#000000;stroke-linecap:square;stroke-linejoin:miter;stroke-width:0.8;"/>
   </g>
   <g id="patch_4">
    <path d="M 414.72 307.584 
L 414.72 41.472 
" style="fill:none;stroke:#000000;stroke-linecap:square;stroke-linejoin:miter;stroke-width:0.8;"/>
   </g>
   <g id="patch_5">
    <path d="M 57.6 307.584 
L 414.72 307.584 
" style="fill:none;stroke:#000000;stroke-linecap:square;stroke-linejoin:miter;stroke-width:0.8;"/>
   </g>
   <g id="patch_6">
    <path d="M 57.6 41.472 
L 414.72 41.472 
" style="fill:none;stroke:#000000;stroke-linecap:square;stroke-linejoin:miter;stroke-width:0.8;"/>
   </g>
   <g id="text_17">
    <text style="font-family:DejaVu Sans;font-size:12px;font-style:normal;font-weight:normal;text-anchor:middle;" transform="rotate(-0, 236.16, 35.472)" x="236.16" y="35.472">Avg. Bits Consumed by 0.5*x/(1+0.5*x) Algorithm</text>
   </g>
   <g id="legend_1">
    <g id="patch_7">
     <path d="M 296.162188 64.150125 
L 407.72 64.150125 
Q 409.72 64.150125 409.72 62.150125 
L 409.72 48.472 
Q 409.72 46.472 407.72 46.472 
L 296.162188 46.472 
Q 294.162188 46.472 294.162188 48.472 
L 294.162188 62.150125 
Q 294.162188 64.150125 296.162188 64.150125 
z
" style="fill:#ffffff;opacity:0.8;stroke:#cccccc;stroke-linejoin:miter;"/>
    </g>
    <g id="line2d_16">
     <path d="M 298.162188 54.570438 
L 318.162188 54.570438 
" style="fill:none;stroke:#1f77b4;stroke-linecap:square;stroke-width:1.5;"/>
    </g>
    <g id="line2d_17"/>
    <g id="text_18">
     <text style="font-family:DejaVu Sans;font-size:10px;font-style:normal;font-weight:normal;text-anchor:start;" transform="rotate(-0, 326.162188, 58.070438)" x="326.162188" y="58.070438">0.5*x/(1+0.5*x)</text>
    </g>
   </g>
  </g>
 </g>
 <defs>
  <clipPath id="p17ffe88256">
   <rect height="266.112" width="357.12" x="57.6" y="41.472"/>
  </clipPath>
 </defs>
</svg>

<svg height="460.8" viewBox="0 0 460.8 345.6" width="614.4" xmlns="http://www.w3.org/2000/svg" xmlns:xlink="http://www.w3.org/1999/xlink"><defs><style>*{stroke-linecap:butt;stroke-linejoin:round}</style></defs><g id="figure_1"><path d="M0 345.6h460.8V0H0z" fill="#fff" id="patch_1"/><g id="axes_1"><path d="M57.6 307.584h357.12V41.472H57.6z" fill="#fff" id="patch_2"/><g id="matplotlib.axis_1"><g id="xtick_1"><g id="line2d_1"><defs><path d="M0 0v3.5" id="m51be2d2467" stroke="#000" stroke-width=".8"/></defs><use x="73.8" xlink:href="#m51be2d2467" y="307.584" stroke="#000" stroke-width=".8"/></g><text x="73.8" y="322.182" font-family="DejaVu Sans" font-size="10" font-weight="400" text-anchor="middle" id="text_1">0.0</text></g><g id="xtick_2"><use x="138.744" xlink:href="#m51be2d2467" y="307.584" stroke="#000" stroke-width=".8" id="line2d_2"/><text x="138.744" y="322.182" font-family="DejaVu Sans" font-size="10" font-weight="400" text-anchor="middle" id="text_2">0.2</text></g><g id="xtick_3"><use x="203.688" xlink:href="#m51be2d2467" y="307.584" stroke="#000" stroke-width=".8" id="line2d_3"/><text x="203.688" y="322.182" font-family="DejaVu Sans" font-size="10" font-weight="400" text-anchor="middle" id="text_3">0.4</text></g><g id="xtick_4"><use x="268.632" xlink:href="#m51be2d2467" y="307.584" stroke="#000" stroke-width=".8" id="line2d_4"/><text x="268.632" y="322.182" font-family="DejaVu Sans" font-size="10" font-weight="400" text-anchor="middle" id="text_4">0.6</text></g><g id="xtick_5"><use x="333.576" xlink:href="#m51be2d2467" y="307.584" stroke="#000" stroke-width=".8" id="line2d_5"/><text x="333.576" y="322.182" font-family="DejaVu Sans" font-size="10" font-weight="400" text-anchor="middle" id="text_5">0.8</text></g><g id="xtick_6"><use x="398.52" xlink:href="#m51be2d2467" y="307.584" stroke="#000" stroke-width=".8" id="line2d_6"/><text x="398.52" y="322.182" font-family="DejaVu Sans" font-size="10" font-weight="400" text-anchor="middle" id="text_6">1.0</text></g><text x="236.16" y="335.861" font-family="DejaVu Sans" font-size="10" font-weight="400" text-anchor="middle" id="text_7">Probability</text></g><g id="matplotlib.axis_2"><g id="ytick_1"><g id="line2d_7"><defs><path d="M0 0h-3.5" id="m707fd17c06" stroke="#000" stroke-width=".8"/></defs><use x="57.6" xlink:href="#m707fd17c06" y="295.749" stroke="#000" stroke-width=".8"/></g><text x="50.6" y="299.548" font-family="DejaVu Sans" font-size="10" font-weight="400" text-anchor="end" id="text_8">2.50</text></g><g id="ytick_2"><use x="57.6" xlink:href="#m707fd17c06" y="263.093" stroke="#000" stroke-width=".8" id="line2d_8"/><text x="50.6" y="266.892" font-family="DejaVu Sans" font-size="10" font-weight="400" text-anchor="end" id="text_9">2.75</text></g><g id="ytick_3"><use x="57.6" xlink:href="#m707fd17c06" y="230.436" stroke="#000" stroke-width=".8" id="line2d_9"/><text x="50.6" y="234.235" font-family="DejaVu Sans" font-size="10" font-weight="400" text-anchor="end" id="text_10">3.00</text></g><g id="ytick_4"><use x="57.6" xlink:href="#m707fd17c06" y="197.779" stroke="#000" stroke-width=".8" id="line2d_10"/><text x="50.6" y="201.579" font-family="DejaVu Sans" font-size="10" font-weight="400" text-anchor="end" id="text_11">3.25</text></g><g id="ytick_5"><use x="57.6" xlink:href="#m707fd17c06" y="165.123" stroke="#000" stroke-width=".8" id="line2d_11"/><text x="50.6" y="168.922" font-family="DejaVu Sans" font-size="10" font-weight="400" text-anchor="end" id="text_12">3.50</text></g><g id="ytick_6"><use x="57.6" xlink:href="#m707fd17c06" y="132.466" stroke="#000" stroke-width=".8" id="line2d_12"/><text x="50.6" y="136.266" font-family="DejaVu Sans" font-size="10" font-weight="400" text-anchor="end" id="text_13">3.75</text></g><g id="ytick_7"><use x="57.6" xlink:href="#m707fd17c06" y="99.81" stroke="#000" stroke-width=".8" id="line2d_13"/><text x="50.6" y="103.609" font-family="DejaVu Sans" font-size="10" font-weight="400" text-anchor="end" id="text_14">4.00</text></g><g id="ytick_8"><use x="57.6" xlink:href="#m707fd17c06" y="67.153" stroke="#000" stroke-width=".8" id="line2d_14"/><text x="50.6" y="70.952" font-family="DejaVu Sans" font-size="10" font-weight="400" text-anchor="end" id="text_15">4.25</text></g><text transform="rotate(-90 22.255 174.528)" x="22.255" y="174.528" font-family="DejaVu Sans" font-size="10" font-weight="400" text-anchor="middle" id="text_16">Average Bits Consumed Per Call</text></g><path clip-path="url(#p17ffe88256)" d="M73.833 94.846l3.28 57.214 3.278-23.251 3.28-8.1 3.28-67.141 3.278 59.566 3.28-18.81 3.28 73.673 3.278-53.296 3.28 30.828 3.28.784 3.278-20.9 3.28-10.19 3.28 32.657 3.278 16.198 3.28-45.197 3.28 35.27 3.278-15.676 3.28-1.829 3.28 37.62 3.279-20.638 3.279-26.91 3.28 59.828 3.279-41.8 3.279 15.152 3.28-16.982 3.279 27.432 3.279 6.531 3.28-42.061 3.279 45.196 3.279-18.549 3.28 49.116 3.279-39.45 3.279 50.684 3.28-65.575 3.279 44.152 3.279 9.144 3.28-15.937 3.279-11.756 3.279 18.288 3.28-18.55 3.279 18.811 3.279-17.765 3.28 11.495 3.279-.261 3.279-4.703 3.28 53.557 3.279-62.178 3.279-18.55 3.28 42.846 3.279-21.422 3.279 36.836 3.28-4.441 3.279 27.954 3.279-32.918 3.28-13.063 3.279 21.162 3.279-18.026 3.28 23.774 3.279-1.307 3.28 42.062 3.278-52.773 3.28 14.891 3.28-6.009 3.278 2.613 3.28-8.883 3.28 14.63 3.278 18.55 3.28-15.414 3.28 16.459 3.278 4.44 3.28-25.34 3.28 3.134 3.278 14.37 3.28-18.027 3.28 34.485 3.278-35.269 3.28 30.305 3.28-12.801 3.278 38.927 3.28-58.26 3.28 17.504 3.279 11.234 3.279-42.323 3.28 48.593 3.279-3.919 3.279-10.45 3.28 23.513 3.279-4.964 3.279-16.981 3.28 15.936 3.279 1.045 3.279 10.45 3.28 7.577 3.279-13.063 3.279.261 3.28-4.702 3.279 1.045 3.279 29.26 3.28-14.63" fill="none" stroke="#1f77b4" stroke-linecap="square" stroke-width="1.5" id="line2d_15"/><path d="M57.6 307.584V41.472" fill="none" stroke="#000" stroke-linecap="square" stroke-width=".8" id="patch_3"/><path d="M414.72 307.584V41.472" fill="none" stroke="#000" stroke-linecap="square" stroke-width=".8" id="patch_4"/><path d="M57.6 307.584h357.12" fill="none" stroke="#000" stroke-linecap="square" stroke-width=".8" id="patch_5"/><path d="M57.6 41.472h357.12" fill="none" stroke="#000" stroke-linecap="square" stroke-width=".8" id="patch_6"/><text x="236.16" y="35.472" font-family="DejaVu Sans" font-size="12" font-weight="400" text-anchor="middle" id="text_17">Avg. Bits Consumed by 0.5*x/(1+0.5*x) Algorithm</text><g id="legend_1"><path d="M296.162 64.15H407.72q2 0 2-2V48.472q0-2-2-2H296.162q-2 0-2 2V62.15q0 2 2 2z" fill="#fff" opacity=".8" stroke="#ccc" id="patch_7"/><path d="M298.162 54.57h20" fill="none" stroke="#1f77b4" stroke-linecap="square" stroke-width="1.5" id="line2d_16"/><text x="326.162" y="58.07" font-family="DejaVu Sans" font-size="10" font-weight="400" id="text_18">0.5*x/(1+0.5*x)</text></g></g></g><defs><clipPath id="p17ffe88256"><path d="M57.6 41.472h357.12v266.112H57.6z"/></clipPath></defs></svg>
